X:011
T:Bashful Bachelor 2 (hornpipe) 
B:CRE 3.215 (BaitsilÃÂÃÂÃÂÃÂ©ir CÃÂÃÂÃÂÃÂºthail)
F:file ID: cre.3/011bash_b2
L:1/8
Q:150
M:4/4
R:hornpipe
K:G
dc|(3Bcd GA BGdB|cegA dAFD|(3Bcd GA BGcB|(3ABA (3GFE D2 BA|
GBdg bgdB|(3cBc eg cAF2|(3Bcd gB (3ABA FA|G2 (3AGF G2:|
a2|bgeg dgBG|dgbg dgb2|bg~g2 dgbd|ec (3age a4|
bg~g2 dgdB|cBAB cde2|(3gfg dB DGAc|(3BAG (3AGF G2:|

%%%

